app/images/contact/phone.svg

<svg xmlns="http://www.w3.org/2000/svg" width="37" height="44"><path id="icon" d="M1355.44 650.922a5.06 5.06 0 115.06 5 5.034 5.034 0 01-5.06-5zm1.97 0a3.085 3.085 0 103.09-3.045 3.074 3.074 0 00-3.09 3.045zm11.47-11.336a5.06 5.06 0 115.06 5 5.033 5.033 0 01-5.06-5zm1.98 0a3.085 3.085 0 103.08-3.046 3.066 3.066 0 00-3.08 3.046zm-15.42 0a5.06 5.06 0 115.06 5 5.033 5.033 0 01-5.06-5zm1.97 0a3.085 3.085 0 103.09-3.046 3.075 3.075 0 00-3.09 3.046zm-15.41 0a5.06 5.06 0 115.06 5 5.033 5.033 0 01-5.06-5zm1.97 0a3.085 3.085 0 103.09-3.046 3.075 3.075 0 00-3.09 3.046zm24.91-11.337a5.06 5.06 0 115.06 5 5.034 5.034 0 01-5.06-5zm1.98 0a3.085 3.085 0 103.08-3.045 3.064 3.064 0 00-3.08 3.045zm-15.42 0a5.06 5.06 0 115.06 5 5.034 5.034 0 01-5.06-5zm1.97 0a3.085 3.085 0 103.09-3.045 3.073 3.073 0 00-3.09 3.045zm-15.41 0a5.06 5.06 0 115.06 5 5.034 5.034 0 01-5.06-5zm1.97 0a3.085 3.085 0 103.09-3.045 3.073 3.073 0 00-3.09 3.045zm24.91-11.336a5.06 5.06 0 115.06 5 5.033 5.033 0 01-5.06-5zm1.98 0a3.085 3.085 0 103.08-3.046 3.066 3.066 0 00-3.08 3.046zm-15.42 0a5.06 5.06 0 115.06 5 5.033 5.033 0 01-5.06-5zm1.97 0a3.085 3.085 0 103.09-3.046 3.075 3.075 0 00-3.09 3.046zm-15.41 0a5.06 5.06 0 115.06 5 5.033 5.033 0 01-5.06-5zm1.97 0a3.085 3.085 0 103.09-3.046 3.075 3.075 0 00-3.09 3.046z" transform="translate(-1342 -611.906)" fill="#a3bbc8" fill-rule="evenodd"/></svg>

<svg xmlns="http://www.w3.org/2000/svg" width="37" height="44" viewBox="0 0 37 44">
  <metadata><?xpacket begin="﻿" id="W5M0MpCehiHzreSzNTczkc9d"?>
<x:xmpmeta xmlns:x="adobe:ns:meta/" x:xmptk="Adobe XMP Core 5.6-c138 79.159824, 2016/09/14-01:09:01        ">
   <rdf:RDF xmlns:rdf="http://www.w3.org/1999/02/22-rdf-syntax-ns#">
      <rdf:Description rdf:about=""/>
   </rdf:RDF>
</x:xmpmeta>
                                                                                                    
                                                                                                    
                                                                                                    
                                                                                                    
                                                                                                    
                                                                                                    
                                                                                                    
                                                                                                    
                                                                                                    
                                                                                                    
                                                                                                    
                                                                                                    
                                                                                                    
                                                                                                    
                                                                                                    
                                                                                                    
                                                                                                    
                                                                                                    
                                                                                                    
                                                                                                    
                           
<?xpacket end="w"?></metadata>
<defs>
    <style>
      .cls-1 {
        fill: #a3bbc8;
        fill-rule: evenodd;
      }
    </style>
  </defs>
  <path id="icon" class="cls-1" d="M1355.44,650.922a5.06,5.06,0,1,1,5.06,5A5.034,5.034,0,0,1,1355.44,650.922Zm1.97,0a3.085,3.085,0,1,0,3.09-3.045A3.074,3.074,0,0,0,1357.41,650.922Zm11.47-11.336a5.06,5.06,0,1,1,5.06,5A5.033,5.033,0,0,1,1368.88,639.586Zm1.98,0a3.085,3.085,0,1,0,3.08-3.046A3.066,3.066,0,0,0,1370.86,639.586Zm-15.42,0a5.06,5.06,0,1,1,5.06,5A5.033,5.033,0,0,1,1355.44,639.586Zm1.97,0a3.085,3.085,0,1,0,3.09-3.046A3.075,3.075,0,0,0,1357.41,639.586Zm-15.41,0a5.06,5.06,0,1,1,5.06,5A5.033,5.033,0,0,1,1342,639.586Zm1.97,0a3.085,3.085,0,1,0,3.09-3.046A3.075,3.075,0,0,0,1343.97,639.586Zm24.91-11.337a5.06,5.06,0,1,1,5.06,5A5.034,5.034,0,0,1,1368.88,628.249Zm1.98,0a3.085,3.085,0,1,0,3.08-3.045A3.064,3.064,0,0,0,1370.86,628.249Zm-15.42,0a5.06,5.06,0,1,1,5.06,5A5.034,5.034,0,0,1,1355.44,628.249Zm1.97,0a3.085,3.085,0,1,0,3.09-3.045A3.073,3.073,0,0,0,1357.41,628.249Zm-15.41,0a5.06,5.06,0,1,1,5.06,5A5.034,5.034,0,0,1,1342,628.249Zm1.97,0a3.085,3.085,0,1,0,3.09-3.045A3.073,3.073,0,0,0,1343.97,628.249Zm24.91-11.336a5.06,5.06,0,1,1,5.06,5A5.033,5.033,0,0,1,1368.88,616.913Zm1.98,0a3.085,3.085,0,1,0,3.08-3.046A3.066,3.066,0,0,0,1370.86,616.913Zm-15.42,0a5.06,5.06,0,1,1,5.06,5A5.033,5.033,0,0,1,1355.44,616.913Zm1.97,0a3.085,3.085,0,1,0,3.09-3.046A3.075,3.075,0,0,0,1357.41,616.913Zm-15.41,0a5.06,5.06,0,1,1,5.06,5A5.033,5.033,0,0,1,1342,616.913Zm1.97,0a3.085,3.085,0,1,0,3.09-3.046A3.075,3.075,0,0,0,1343.97,616.913Z" transform="translate(-1342 -611.906)"/>
</svg>
